images/ig-logo.svg

<svg xmlns="http://www.w3.org/2000/svg" width="119.3" height="119.3" viewBox="0 0 119.3 119.3"><circle cx="59.7" cy="59.7" r="59.7" fill="#fff"/><path fill="#5a7fe0" d="M77.4 103.1H42a24.7 24.7 0 0 1-24.6-24.6V40.8A24.7 24.7 0 0 1 42 16.2h35.4A24.7 24.7 0 0 1 102 40.8v37.7a24.7 24.7 0 0 1-24.6 24.6zm0-6.5a18.2 18.2 0 0 0 18.1-18.1V40.8a18.2 18.2 0 0 0-18.1-18.1H42a18.2 18.2 0 0 0-18.1 18.1v37.7A18.2 18.2 0 0 0 42 96.6z"/><path fill="#5a7fe0" d="M83.1 59.3A23.3 23.3 0 1 1 59.8 36a23.3 23.3 0 0 1 23.3 23.3zM59.7 44.1a15.3 15.3 0 1 0 15.2 15.2 15.3 15.3 0 0 0-15.2-15.2z"/><circle cx="83.5" cy="35.7" r="5.5" fill="#5a7fe0"/></svg>

<svg id="Layer_1" data-name="Layer 1" xmlns="http://www.w3.org/2000/svg" width="119.3" height="119.3" viewBox="0 0 119.3 119.3"><title>ig-logo</title><g id="Layer_2" data-name="Layer 2"><circle cx="59.7" cy="59.7" r="59.7" fill="#fff"/><path d="M77.4,103.1H42A24.7,24.7,0,0,1,17.4,78.5V40.8A24.7,24.7,0,0,1,42,16.2H77.4A24.7,24.7,0,0,1,102,40.8V78.5A24.7,24.7,0,0,1,77.4,103.1Zm0-6.5A18.2,18.2,0,0,0,95.5,78.5V40.8A18.2,18.2,0,0,0,77.4,22.7H42A18.2,18.2,0,0,0,23.9,40.8V78.5A18.2,18.2,0,0,0,42,96.6Z" fill="#5a7fe0"/><path d="M83.1,59.3A23.3,23.3,0,1,1,59.8,36,23.3,23.3,0,0,1,83.1,59.3ZM59.7,44.1A15.3,15.3,0,1,0,74.9,59.3,15.3,15.3,0,0,0,59.7,44.1Z" fill="#5a7fe0"/><circle cx="83.5" cy="35.7" r="5.5" fill="#5a7fe0"/></g></svg>
